site/images/icon-arrow.svg

<svg id="Layer_1" enable-background="new 0 0 63 63" height="63" viewBox="0 0 63 63" width="63" xmlns="http://www.w3.org/2000/svg"><path d="m31.5 63c-17.4 0-31.5-14.1-31.5-31.5s14.1-31.5 31.5-31.5 31.5 14.1 31.5 31.5-14.1 31.5-31.5 31.5zm0-60c-15.7 0-28.5 12.8-28.5 28.5s12.8 28.5 28.5 28.5 28.5-12.8 28.5-28.5-12.8-28.5-28.5-28.5z" fill="#fff"/><path d="m31.5 48.8l-21.7-21.8 2.1-2.1 19.6 19.7 19.6-19.7 2.2 2.1z" fill="#fff"/></svg>

<svg version="1.1" id="Layer_1" xmlns="http://www.w3.org/2000/svg" xmlns:xlink="http://www.w3.org/1999/xlink" x="0px" y="0px"
	 width="63px" height="63px" viewBox="0 0 63 63" enable-background="new 0 0 63 63" xml:space="preserve">
<g>
	<path fill="#FFFFFF" d="M31.5,63C14.1,63,0,48.9,0,31.5S14.1,0,31.5,0S63,14.1,63,31.5S48.9,63,31.5,63z M31.5,3
		C15.8,3,3,15.8,3,31.5S15.8,60,31.5,60S60,47.2,60,31.5S47.2,3,31.5,3z"/>
</g>
<g>
	<polygon fill="#FFFFFF" points="31.5,48.8 9.8,27 11.9,24.9 31.5,44.6 51.1,24.9 53.3,27 	"/>
</g>
</svg>
